apps/mobile/assets/icons/phosphor/download.svg

<svg
  height="32"
  viewBox="0 0 256 256"
  width="32"
  xmlns="http://www.w3.org/2000/svg"
>
  <path
    d="m240 136v64a16 16 0 0 1 -16 16h-192a16 16 0 0 1 -16-16v-64a16 16 0 0 1 16-16h40a8 8 0 0 1 0 16h-40v64h192v-64h-40a8 8 0 0 1 0-16h40a16 16 0 0 1 16 16zm-117.66-2.34a8 8 0 0 0 11.32 0l48-48a8 8 0 0 0 -11.32-11.32l-34.34 34.35v-84.69a8 8 0 0 0 -16 0v84.69l-34.34-34.35a8 8 0 0 0 -11.32 11.32zm77.66 34.34a12 12 0 1 0 -12 12 12 12 0 0 0 12-12z"
  />
</svg>

<svg xmlns="http://www.w3.org/2000/svg" width="32" height="32" fill="#000000" viewBox="0 0 256 256"><path d="M240,136v64a16,16,0,0,1-16,16H32a16,16,0,0,1-16-16V136a16,16,0,0,1,16-16H72a8,8,0,0,1,0,16H32v64H224V136H184a8,8,0,0,1,0-16h40A16,16,0,0,1,240,136Zm-117.66-2.34a8,8,0,0,0,11.32,0l48-48a8,8,0,0,0-11.32-11.32L136,108.69V24a8,8,0,0,0-16,0v84.69L85.66,74.34A8,8,0,0,0,74.34,85.66ZM200,168a12,12,0,1,0-12,12A12,12,0,0,0,200,168Z"></path></svg>
